X:1
T:Eklundapolska #1
R:polska J
C:Viksta-Lasse
A:Uppland
Z:id:hn-jp-1
M:3/4
L:1/16
K:Dm
A2a2 a2^ga ba^ga | A2a2 a2^ga ba^ga | a2ag fefg a2f2 |
f2ed ^cde^c A4 | A2a2 a2^ga ba^ga | A2a2 a2^ga ba^ga |
a2ag fefg afed | ^cde^c d8 :||: a2ab a2ab a2ab |
g2gb g2gb g2gb | f2fa f2fa f2fa | f2ed ^cde^c A4 :|
|: A2d2 ^cde^c d4 | A2f2 efge f4 | A2d2 ^cde^c d4 |
A2cA G2BG A4 | A2cA G2BG F2AF | EFE^C D8 :| 
<end>
<start>
